symbols/web/settings_suggest/materialsymbolsrounded/settings_suggest_gradN25fill1_24px.svg

<svg xmlns="http://www.w3.org/2000/svg" height="24" width="24"><path d="M18.425 8.25q-.125 0-.25-.062-.125-.063-.175-.213l-.625-1.35L16 6q-.125-.05-.2-.175-.075-.125-.075-.25t.075-.25q.075-.125.2-.175l1.375-.625L18 3.15q.05-.125.175-.2.125-.075.25-.075t.25.075q.125.075.175.2l.625 1.375 1.35.625q.15.05.213.175.062.125.062.25t-.062.25q-.063.125-.213.175l-1.35.625-.625 1.35q-.05.15-.175.213-.125.062-.25.062Zm1.95 6.975q-.125 0-.25-.075t-.175-.2l-.35-.725-.75-.35q-.075-.05-.25-.425 0-.125.063-.25.062-.125.187-.175l.75-.35.35-.75q.05-.075.425-.25.125 0 .238.062.112.063.187.188l.35.75.725.35q.1.05.275.425 0 .125-.075.238-.075.112-.2.187l-.725.35-.35.725q-.05.1-.425.275Zm-11.9 6.5q-.35 0-.6-.237-.25-.238-.3-.588L7.4 19.45q-.225-.075-.437-.212-.213-.138-.363-.288l-1.375.6q-.325.15-.663.037-.337-.112-.512-.412l-1.55-2.7q-.175-.325-.1-.663.075-.337.375-.562l1.175-.85v-.9l-1.175-.875q-.3-.2-.375-.55-.075-.35.1-.65l1.55-2.7q.175-.325.512-.425.338-.1.663.025L6.6 8.95q.15-.175.363-.3.212-.125.437-.2l.175-1.475q.05-.35.3-.575.25-.225.6-.225H11.6q.35 0 .6.225t.3.575l.2 1.475q.2.075.413.2.212.125.387.3l1.35-.625q.325-.125.663-.025.337.1.512.425l1.55 2.7q.2.3.125.65-.075.35-.375.55l-1.175.875v.9l1.175.85q.3.225.375.562.075.338-.125.663l-1.55 2.7q-.175.3-.512.412-.338.113-.663-.037l-1.35-.6q-.175.15-.387.288-.213.137-.413.212l-.2 1.45q-.05.35-.3.588-.25.237-.6.237Zm1.575-4.85q1.2 0 2.063-.863.862-.862.862-2.062 0-1.225-.862-2.075-.863-.85-2.063-.85-1.225 0-2.075.85-.85.85-.85 2.075 0 1.2.85 2.062.85.863 2.075.863Zm0-2.925Z"/></svg>

<svg xmlns="http://www.w3.org/2000/svg" height="24" width="24"><path d="M18.425 8.25Q18.3 8.25 18.175 8.188Q18.05 8.125 18 7.975L17.375 6.625L16 6Q15.875 5.95 15.8 5.825Q15.725 5.7 15.725 5.575Q15.725 5.45 15.8 5.325Q15.875 5.2 16 5.15L17.375 4.525L18 3.15Q18.05 3.025 18.175 2.95Q18.3 2.875 18.425 2.875Q18.55 2.875 18.675 2.95Q18.8 3.025 18.85 3.15L19.475 4.525L20.825 5.15Q20.975 5.2 21.038 5.325Q21.1 5.45 21.1 5.575Q21.1 5.7 21.038 5.825Q20.975 5.95 20.825 6L19.475 6.625L18.85 7.975Q18.8 8.125 18.675 8.188Q18.55 8.25 18.425 8.25ZM20.375 15.225Q20.25 15.225 20.125 15.15Q20 15.075 19.95 14.95L19.6 14.225L18.85 13.875Q18.775 13.825 18.6 13.45Q18.6 13.325 18.663 13.2Q18.725 13.075 18.85 13.025L19.6 12.675L19.95 11.925Q20 11.85 20.375 11.675Q20.5 11.675 20.613 11.737Q20.725 11.8 20.8 11.925L21.15 12.675L21.875 13.025Q21.975 13.075 22.15 13.45Q22.15 13.575 22.075 13.688Q22 13.8 21.875 13.875L21.15 14.225L20.8 14.95Q20.75 15.05 20.375 15.225ZM8.475 21.725Q8.125 21.725 7.875 21.488Q7.625 21.25 7.575 20.9L7.4 19.45Q7.175 19.375 6.963 19.238Q6.75 19.1 6.6 18.95L5.225 19.55Q4.9 19.7 4.562 19.587Q4.225 19.475 4.05 19.175L2.5 16.475Q2.325 16.15 2.4 15.812Q2.475 15.475 2.775 15.25L3.95 14.4Q3.95 14.15 3.95 13.938Q3.95 13.725 3.95 13.5L2.775 12.625Q2.475 12.425 2.4 12.075Q2.325 11.725 2.5 11.425L4.05 8.725Q4.225 8.4 4.562 8.3Q4.9 8.2 5.225 8.325L6.6 8.95Q6.75 8.775 6.963 8.65Q7.175 8.525 7.4 8.45L7.575 6.975Q7.625 6.625 7.875 6.4Q8.125 6.175 8.475 6.175H11.6Q11.95 6.175 12.2 6.4Q12.45 6.625 12.5 6.975L12.7 8.45Q12.9 8.525 13.113 8.65Q13.325 8.775 13.5 8.95L14.85 8.325Q15.175 8.2 15.513 8.3Q15.85 8.4 16.025 8.725L17.575 11.425Q17.775 11.725 17.7 12.075Q17.625 12.425 17.325 12.625L16.15 13.5Q16.15 13.725 16.15 13.938Q16.15 14.15 16.15 14.4L17.325 15.25Q17.625 15.475 17.7 15.812Q17.775 16.15 17.575 16.475L16.025 19.175Q15.85 19.475 15.513 19.587Q15.175 19.7 14.85 19.55L13.5 18.95Q13.325 19.1 13.113 19.238Q12.9 19.375 12.7 19.45L12.5 20.9Q12.45 21.25 12.2 21.488Q11.95 21.725 11.6 21.725ZM10.05 16.875Q11.25 16.875 12.113 16.012Q12.975 15.15 12.975 13.95Q12.975 12.725 12.113 11.875Q11.25 11.025 10.05 11.025Q8.825 11.025 7.975 11.875Q7.125 12.725 7.125 13.95Q7.125 15.15 7.975 16.012Q8.825 16.875 10.05 16.875ZM10.05 13.95Z"/></svg>
